!!!!SEGMENT: pl-cz--d-ii-43--007_elsner-jozef--msza-pasterska-benedictus.krn
!!!cenid: 18xx:203
!!!COM: Elsner, Józef
!!!COM-rismid: pe30000957
!!!CDT: 1769/06/01-1854/04/18
!!!CNT: Polish
!!!OPR: Msza pasterska
!!!OTL: Benedictus
!!!OMV: 007
!!!PDT: 1843
!!!AGN: Sacred; Mass
!!!SMS-siglum: PL-CZ
!!!SMS-shelfmark: D II-43
!!!SMS-shelfwork: 001-007 M
!!!NIFC-rismid:
!!!URL-scan: http://repozytorium.nifc.pl/skany/pl-cz-nut--dii-43
!!!ONB-nifc: UWAGA: części Mszy: Kyrie, Gloria, Graduale, Credo, Offertorium, Sanctus, Benedictus, Agnus
!!!AIN: 1 cello 1 organ 1 soprn
!!!key:
**kern	**kern	**dynam	**kern	**kern	**text
*part3	*part3	*part3	*part2	*part1	*part1
*staff4	*staff3	*	*staff2	*staff1	*staff1
*Iorgan	*Iempty	*	*Icello	*Isoprn	*
*I"Organo.	*	*	*I"Violoncello	*I"Soprano Solo	*
*I'Org.	*	*	*I'V-c.	*I'S.	*
*clefF4	*clefG2	*	*clefF4	*clefG2	*
*k[b-]	*k[b-]	*	*k[b-]	*k[b-]	*
*F:	*F:	*	*F:	*F:	*
*M3/4	*M3/4	*	*M3/4	*M3/4	*
=1	=1	=1	=1	=1	=1
*^	*	*	*	*	*
!	!	!	!	!	!LO:TX:a:Bi:t=Andantino	!
2c 2A/	2.F\	(8f\L	.	(8F\L	2.r	.
.	.	8a\	.	8A\	.	.
.	.	8cc\	.	8c\	.	.
.	.	8ff\	.	8f\	.	.
4d 4B-/	.	8dd\	.	8d\	.	.
.	.	8b-\J)	.	8B-\J)	.	.
=2	=2	=2	=2	=2	=2	=2
.	.	16qqcc/LL	.	16qqc/LL	.	.
.	.	16qqb-/JJ	.	16qqB-/JJ	.	.
4A 4F\	[>2.c/	(4a\	.	(4A\	2.r	.
4G 4E\	.	4b-\)	.	4B-\)	.	.
4A 4F\	.	4a`\	.	4A'\	.	.
*v	*v	*	*	*	*	*
=3	=3	=3	=3	=3	=3
2.c] 2.G 2.E\	8g/L	.	8G\L	2.r	.
.	8dd/	.	8d\	.	.
.	8cc/	.	8c\	.	.
.	8g/	.	8G\	.	.
.	8cc/	.	8c\	.	.
.	8b-/J	.	8B-\J	.	.
=4	=4	=4	=4	=4	=4
.	16qqa/LL	.	16qqA/LL	.	.
.	16qqg/JJ	.	16qqG/JJ	.	.
*^	*	*	*	*	*
2c/	4A\ 4F\	(>4f/	.	(4F\	2.r	.
.	4B- 4E\	4g/)	.	4G\)	.	.
8c/L	8cL 8A 8F\	4f'>/	.	4F'\	.	.
8d/J	8D\J	.	.	.	.	.
*v	*v	*	*	*	*	*
=5	=5	=5	=5	=5	=5
*	*^	*	*	*	*
2Bn 2BBn\	2dd/	2g 2f\	.	2d\	2.r	.
*	*v	*v	*	*	*	*
4c 4C\	8eeL 8g 8e/	.	8e\L	.	.
.	[8ccJ 8g 8e/	.	[8c\J	.	.
=6	=6	=6	=6	=6	=6
4d 4D\	8cc]L 8f/	.	8c\L]	2.r	.
.	8bn/J	.	8Bn\J	.	.
4c 4C\	4.cc 4.e/	.	4.c\	.	.
8AL 8AA\	.	.	.	.	.
8FJ 8FF\	8dd 8a 8f/	.	8d\	.	.
=7	=7	=7	=7	=7	=7
!LO:S:s=1:note:problem=note-level slur	!	!	!	!	!
(>2.G 2.GG/	2g 2e/	.	2G\	2.r	.
.	8aL 8f#X 8d#X/	.	(8A\L	.	.
.	8bnJ 8fn 8dn/	.	8Bn\J)	.	.
=8	=8	=8	=8	=8	=8
*^	*	*	*	*	*
!	!	!	!	!LO:TX:a:t=P:problem=mixed beam	!	!
2C/)	2CC/	2cc 2g 2e/	.	8c\L	2.r	.
.	.	.	.	8C/J	.	.
.	.	.	.	4.c\	.	.
8c/L	4r	4r	.	.	.	.
8B-/J	.	.	.	8B-\	.	.
=9	=9	=9	=9	=9	=9	=9
.	.	.	.	16qqA/LL	.	.
.	.	.	.	16qqG/JJ	.	.
2c/	2A 2F\	8r	pp	[2.F\	(8f\L	O
.	.	8a\L	.	.	8a\	.
.	.	8cc\	.	.	8cc\	.
.	.	8ff\J	.	.	8ff\J)	.
4d 4B-/	4F\	8dd\	.	.	8dd\L	Ma-
.	.	8r	.	.	8g\J	.
=10	=10	=10	=10	=10	=10	=10
.	.	.	.	.	16qqcc/LL	.
.	.	.	.	.	16qqb-/JJ	.
[2.c/	4A 4F\	4r	.	(4F\]	(4a/	-ry-
.	4G 4E\	2ccT\	.	4E\)	4b-/)	.
.	4A 4F\	.	.	4F'\	4a/	-o
*v	*v	*	*	*	*	*
=11	=11	=11	=11	=11	=11
!!LO:LB:g=original
2.c] 2.G 2.E\	8r	.	2.E\	8g\L	Mat-
.	(8dd\L	.	.	8dd\	.
.	8cc\	.	.	8cc\	.
.	8g\J)	.	.	8g\J	.
.	8cc\	.	.	8cc\L	-ko
.	8r	.	.	8b-\J	.
=12	=12	=12	=12	=12	=12
.	.	.	.	16qqa/LL	.
.	.	.	.	16qqg/JJ	.
*^	*	*	*	*	*
2.c/	4A 4F\	4r	.	4F\	(4f/	Bo-
.	4G 4E\	2ccT\	.	4E\	4g/)	.
.	4A 4F\	.	.	4F\	4f/	-ga.
*v	*v	*	*	*	*	*
=13	=13	=13	=13	=13	=13
2.F 2.FF/	4dd 4b-\	.	2.F\	(4dd\	Tyś
.	4cc 4a\	.	.	4cc\)	.
.	8ffL 8dd\	.	.	8ff\L	na-
.	8ddJ 8b-\	.	.	8dd\J	.
=14	=14	=14	=14	=14	=14
2F 2FF/	8ccL 8a\	.	2F\	(8cc\L	-dzie-
.	8aJ 8f\	.	.	8a\J	.
.	4.cc 4.a\	.	.	4.cc\)	.
4F 4FF/	.	.	4F\	.	.
.	8a 8f\	.	.	8a/	-ja
=15	=15	=15	=15	=15	=15
*	*tremolo	*	*	*	*
2E 2EE/	8b- 8g/L	.	2E\	2b-\	mo-
.	8c/	.	.	.	.
.	8b- 8g	.	.	.	.
.	8c/J	.	.	.	.
*	*Xtremolo	*	*	*	*
4F 4FF/	8aL 8f/	.	4F\	4a/	-ia
.	8c/J	.	.	.	.
=16	=16	=16	=16	=16	=16
2C 2CC/	(16gLL 16e/	.	2C/	16g/LL	dro-
.	16a 16f/	.	.	16a/	.
.	16b- 16g/	.	.	16b-/	.
.	16aJJ 16f/)	.	.	16a/JJ	.
.	4.g 4.e/	.	.	4g/	-ga
4C 4CC/	.	.	4C/	4r	.
.	8a 8f/	.	.	.	.
=17	=17	=17	=17	=17	=17
2.C 2.CC/	4.b- 4.g\	.	(4F\	8g\L	przed
.	.	.	.	8dd\J	.
.	.	.	4C\)	(4.cc\	twym
.	8g 8e/	.	.	.	.
.	4b- 4g/	.	4E\	.	.
.	.	.	.	8b-\)	.
=18	=18	=18	=18	=18	=18
2.F 2.FF/	4.a 4.f/	.	4F\	8a\L	Tro-
.	.	.	.	8dd\J	.
.	.	.	4FF/	2cc\	-nem
.	8c/	.	.	.	.
.	4a 4f/	.	4F\	.	.
=19	=19	=19	=19	=19	=19
2.C 2.CC/	4.b- 4.g/	.	4E\	8g\L	nis-
.	.	.	.	8dd\J	.
.	.	.	4C\	(4.cc\	-ko
.	8g 8e/	.	.	.	.
.	4b- 4g/	.	4E\	.	.
.	.	.	.	8b-\)	.
=20	=20	=20	=20	=20	=20
2.F 2.FF/	4.a 4.f/	.	4F\	8a\L	pa-
.	.	.	.	8dd\J	.
.	.	.	4FF/	2cc\	-dam
.	8f/	.	.	.	.
.	4cc 4a\	.	4F\	.	.
=21	=21	=21	=21	=21	=21
2.F [2.FF/	8ddL 8b-\	.	[2.FF/	8dd\	Hołd
.	8cc 8a\	.	.	8cc\	po-
.	8dd 8b-\	.	.	8dd\	-win-
.	8cc 8a\	.	.	8cc\	-ny
.	8dd 8b-\	.	.	8dd\	to-
.	8eeJ 8cc\	.	.	8ee\	-bie
=22	=22	=22	=22	=22	=22
!!LO:LB:g=original
!LO:TX:b:t=P:problem=brak zakończenia ligatury	!	!	!LO:TX:a:t=P:problem=brak zakończenia ligatury	!	!
2.F 2.FF/]	4ff 4a 4f\	.	2.FF/]	(4ff\	skła-
.	4ee 4b- 4g\	.	.	4ee\)	.
.	4ff 4cc 4a\	.	.	4ff\	-dam
=23	=23	=23	=23	=23	=23
2.G 2.GG/	8ffL 8dd 8bn\	.	4.GG/	8ff\	O
.	8eeJ 8cc\	.	.	8ee\	Ma-
*	*tremolo	*	*	*	*
.	8ddL 8bnX\	.	.	4dd\	-ry-
.	8g\	.	8D/L	.	.
.	8dd 8b\	.	8F/	4dd\	-o
.	8g\J	.	8FF/J	.	.
=24	=24	=24	=24	=24	=24
2.G 2.GG/	8eeL 8cc\	.	4.GG/	8ee\	bła-
.	8ddJ 8bn 8f\	.	.	8dd\	-gaj
.	8ccL 8e\	.	.	4cc\	Sy-
.	8g\	.	8C/L	.	.
.	8cc 8e\	.	8E/	4cc\	-na
.	8g\J	.	8GG/J	.	.
=25	=25	=25	=25	=25	=25
2.G 2.GG\	8ffL 8dd 8bn\	.	4.GG/	8ff\	Grze-
.	8eeJ 8cc\	.	.	8ee\	-sznych
.	8ddL 8b\	.	.	4dd\	na-
.	8g\	.	8BBn/L	.	.
.	8dd 8b\	.	8D/	4ff\	-dzie-
.	8g\J	.	8GG/J	.	.
=26	=26	=26	=26	=26	=26
8cL 8C\	8eeL 8cc 8g\	.	8E\L	8ee\	-jo
8GJ 8GG\	8ddJ 8bn 8f\	.	8G\J	8dd\	ie-
8r	4dd 4b 4f\	.	8r	4dd\	-dy-
8GL 8GG\	.	.	8G\L	.	.
8c 8C\	4cc 4g 4e\	.	8c\	4cc\	-na
8CJ 8CC\	.	.	8C\J	.	.
=27	=27	=27	=27	=27	=27
2.G 2.GG/	8ffL 8dd 8bn\	.	8f\L	2.r	.
.	8eeJ 8cc\	.	8e\J	.	.
.	8ddL 8bnX\	.	4d\	.	.
.	8g\	.	.	.	.
.	8dd 8b\	.	4d\	.	.
.	8g\J	.	.	.	.
=28	=28	=28	=28	=28	=28
2.G 2.GG\	8eeL 8cc\	.	8e\L	2.r	.
.	8ddJ 8bn 8f\	.	8d\J	.	.
.	8ccL 8e\	.	4c\	.	.
.	8g\	.	.	.	.
.	8cc 8e\	.	4c\	.	.
.	8g\J	.	.	.	.
=29	=29	=29	=29	=29	=29
2.G 2.GG\	8ffL 8dd 8bn\	.	8d\L	8ff\	Grze-
.	8eeJ 8cc\	.	8c\J	8ee\	-sznych
.	8ddL 8bnX\	.	4Bn\	4dd\	na-
.	8g\	.	.	.	.
.	8dd 8b\	.	4d\	4ff\	-dzie-
.	8g\J	.	.	.	.
*	*Xtremolo	*	*	*	*
=30	=30	=30	=30	=30	=30
8cL 8C\	8eeL 8cc 8g\	.	8c\L	8ee\	-jo
8GJ 8GG\	8ddJ 8bn 8f\	.	8Bn\J	8dd\	ie-
8r	(4dd 4b 4f\	.	8B\	4dd\	-dy-
8GL 8GG\	.	.	4c\	.	.
8c 8C\	8ccL 8g 8e\)	.	.	8cc\	-na
8AJ 8AA\	8eeJ 8cc 8a\	.	8A\	8ee\	na-
=31	=31	=31	=31	=31	=31
2F 2FF\	8r	.	2F\	(4.dd\	-dzie-
*	*Xtuplet	*	*	*	*
.	12ddL 12a 12f\	.	.	.	.
.	12dd 12a 12f\	.	.	.	.
.	12ddJ 12a 12f\	.	.	.	.
.	8r	.	.	16ee\LL)	.
.	.	.	.	16ff\JJ	.
4G 4GG\	4bn 4g 4f 4d/	.	4G\	8bn\	-jo
.	.	.	.	16cc\LL	ie-
.	.	.	.	16dd\JJ	.
=32	=32	=32	=32	=32	=32
2.C 2.CC/	8ccL 8g 8e/	.	2.C/	[2cc\	-dy-
.	8c/	.	.	.	.
.	8cc 8g 8e/	.	.	.	.
.	8c/J	.	.	.	.
.	8aL 8f/	.	.	8cc\]	.
.	8c/J	.	.	16ee\LL	.
.	.	.	.	16dd\JJ	.
=33	=33	=33	=33	=33	=33
!!LO:LB:g=original
!	!	!	!	!LO:N:vis=2.	!
*	*tremolo	*	*	*	*
2.C 2.CC/	8gL 8e/	.	2.C\	2cc\	-na
.	8c/	.	.	.	.
.	8g 8e/	.	.	.	.
.	8c/	.	.	.	.
.	8g 8e/	.	.	4r	.
.	8c/J	.	.	.	.
=34	=34	=34	=34	=34	=34
2.BB- 2.BBB-/	8dd-XL 8g/	.	2.BB-/	2.r	.
.	8e-/	.	.	.	.
.	8dd- 8g/	.	.	.	.
.	8e-/	.	.	.	.
.	8dd- 8g/	.	.	.	.
.	8e-/J	.	.	.	.
=35	=35	=35	=35	=35	=35
2AA-X 2AAA-X/	8ccL 8a-/	.	2AA-X/	4r	.
.	8e-/	.	.	.	.
.	8cc 8a-/	.	.	4r	.
.	8e-/J	.	.	.	.
4GG 4GGG/	8dd-XL 8b-/	.	4GG/	8dd-X\	Gdy
.	8e-/J	.	.	8ee-X\	zaś
=36	=36	=36	=36	=36	=36
2AA-X 2AAA-X/	8cc-XL 8a/	.	2AA-X/	8cc\L	za-
.	8e-/	.	.	8ee-X\J	.
.	8cc- 8a/	.	.	4aa-X\	-wrę
.	8e-/J	.	.	.	.
4GG 4GGG/	8dd-XL 8b-/	.	4GG/	8dd-X\	me
.	8e-/J	.	.	8ee-\	po-
=37	=37	=37	=37	=37	=37
2.AA-X 2.AAA-X/	8ccL 8a-/	.	2.AA-X/	8cc\L	-wie-
.	8e/	.	.	8ee-X\J	.
.	8cc 8a-/	.	.	4a-X/	-ki
.	8e/J	.	.	.	.
.	8ee-XL 8ccn\	.	.	8cc\	na
.	8a-X\J	.	.	8ee-\	nie-
=38	=38	=38	=38	=38	=38
2.AA 2.AAA/	8ffL 8dd-X\	.	2.AA-X/	4.ff\	-po-
.	8a-X\	.	.	.	.
.	8ff 8dd-\	.	.	.	.
.	8ee-X 8cc\	.	.	8ee-X\	-li-
.	8dd- 8b-\	.	.	8dd-X\	-czo-
.	8ccJ 8a-\	.	.	8cc\	-ne
=39	=39	=39	=39	=39	=39
.	.	.	.	8qcc/	.
2E-X 2EE-X/	8b-L 8g/	.	2E-X/	4b-\	wie-
.	8e-/	.	.	.	.
.	8b- 8g/	.	.	8b-\	-ki
.	8e-/J	.	.	8r	.
4GG 4GGG/	8dd-XL 8b-\	.	4GG/	8dd-X\	ot-
.	8e-\J	.	.	8ee-X\	-wórz
=40	=40	=40	=40	=40	=40
2AA-X 2AAA-X/	8ccL 8a-X/	.	2AA-X/	8cc\	mi
.	8e-/	.	.	8ee\	nie-
.	8cc 8a-/	.	.	4aa-X\	-bies-
.	8e-/J	.	.	.	.
4GG 4GGG/	8dd-XL 8b-/	.	4GG/	8dd-X\L	-kie
.	8e-/J	.	.	8ee\J	.
=41	=41	=41	=41	=41	=41
2AA-X 2AAA-X/	8ccL 8a-X/	.	2AA-X/	8cc\L	wro-
.	8e-/	.	.	8ee-X\J	.
.	8cc 8a-/	.	.	4a/	-ta
.	8e-/J	.	.	.	.
4F 4FF/	8ccL 8a-X/	.	4FF/	8r	.
.	8f/J	.	.	8cc\	Do
=42	=42	=42	=42	=42	=42
2.En 2.EEn/	8b-L 8g/	.	2.EEn/	8cc\	szczę-
.	8c/	.	.	8dd-X\	-śli-
.	8b- 8g/	.	.	8cc\L	-we-
.	8c/	.	.	8b-\J	.
.	8b- 8g/	.	.	8a-X/	-go
.	8c/J	.	.	8g/	ży-
=43	=43	=43	=43	=43	=43
!!LO:PB:g=original
.	.	.	.	16qqa-LL	.
.	.	.	.	16qqgJJ	.
2F 2FF/	8a-XL 8f/	.	2FF/	4f/	-wo-
.	8c/	.	.	.	.
.	8a- 8f/	.	.	8f/	-ta
.	8c/J	.	.	8cc\	do
*	*Xtremolo	*	*	*	*
4E-X 4EE-X/	8ccL 8g/	.	4EE-X/	8cc\	szczę-
.	8c/J	.	.	8cc\	-śli-
=44	=44	=44	=44	=44	=44
*	*^	*	*	*	*
!	!	!	!	!	!LO:TX:a:i:t=a piacere	!
!	!	!	!	!	!LO:TX:a:t=P:problem=przekreślony obiegnik	!
2D-X 2DD-X;/	4cc;/	2f\	.	2DD-X;/	4.ff$;\	-we-
.	4bn/	.	.	.	.	.
.	.	.	.	.	8gg\	.
*	*v	*v	*	*	*	*
4r	4r	.	4r	8aa-X\	-go
.	.	.	.	8bn/	ży-
=45	=45	=45	=45	=45	=45
4.C 4.CC/	4.cc 4.g 4.en/	.	4.CC/	4cc\	-wo-
.	.	.	.	8cc\	-ta
8r	8b-L 8g/	.	8B-\L	8r	.
!	!	!	!	!LO:TX:a:i:t=a tempo	!
4r	8an 8f/	.	8An\	4r	.
.	8gJ 8e/	.	8G\J	.	.
=46	=46	=46	=46	=46	=46
.	.	.	16qqA/LL	.	.
.	.	.	16qqG/JJ	.	.
*^	*	*	*	*	*
2c/	2.A 2.F\	8r	.	2.F\	(8f\L	O
.	.	8a\L	.	.	8a\	.
.	.	8cc\	.	.	8cc\	.
.	.	8ff\J	.	.	8ff\J)	.
4d 4B-/	.	8dd\	.	.	8dd\L	Ma-
.	.	8r	.	.	8b-\J	.
=47	=47	=47	=47	=47	=47	=47
.	.	.	.	.	(16qqcc/LL	-ry-
.	.	.	.	.	16qqb-/JJ	.
2.c/	4A 4F\	4r	.	4F\	4a/	.
.	4G 4E\	2ccT\	.	4E\	4b-/)	.
.	4A 4F\	.	.	4F\	4a'/	-o
*v	*v	*	*	*	*	*
=48	=48	=48	=48	=48	=48
2.c 2.G 2.E\	8r	.	2.E\	8g\L	Mat-
.	8dd\L	.	.	8dd\	.
.	8cc\	.	.	8cc\	.
.	8g\J	.	.	8g\J	.
.	8cc\	.	.	8cc\L	-ko
.	8r	.	.	8b-\J	.
=49	=49	=49	=49	=49	=49
.	.	.	.	(16qqa/LL	.
.	.	.	.	16qqg/JJ	.
*^	*	*	*	*	*
2.c/	4A 4F\	4r	.	4F\	4f/	Bo-
.	4G 4E\	2ccT\	.	4E\	4g/)	.
.	4A 4F\	.	.	4F\	4f'/	-ga
*v	*v	*	*	*	*	*
=50	=50	=50	=50	=50	=50
2.F 2.FF/	4dd 4b-\	.	2.F\	(4dd\	Tyś
.	4cc 4a\	.	.	4cc\)	.
.	8ffL 8dd\	.	.	8ff\L	na-
.	8ddJ 8b-\	.	.	8dd\J	.
=51	=51	=51	=51	=51	=51
2.F 2.FF/	8ccL 8a\	.	2F\	8cc\L	-dzie-
.	8aJ 8f\	.	.	8a\J	.
.	4.cc 4.a\	.	.	(4.cc\	.
.	.	.	4F\	.	.
.	8a 8f\	.	.	8a\)	-ia
=52	=52	=52	=52	=52	=52
*	*tremolo	*	*	*	*
2E 2EE/	8b-L 8g/	.	2E\	2b-/	mo-
.	8c/	.	.	.	.
.	8b- 8g/	.	.	.	.
.	8c/J	.	.	.	.
*	*Xtremolo	*	*	*	*
4F 4FF/	8aL 8f/	.	4F\	4a/	-ia
.	8c/J	.	.	.	.
=53	=53	=53	=53	=53	=53
!!LO:LB:g=original
2C 2CC/	16gLL 16e/	.	2C/	16g/LL	dro-
.	16a 16f/	.	.	16a/	.
.	16b- 16g/	.	.	16b-/	.
.	16aJJ 16f/	.	.	16a/JJ	.
.	4.g 4.e/	.	.	4g/	-ga.
4C 4CC/	.	.	4C/	4r	.
.	8a 8f/	.	.	.	.
=54	=54	=54	=54	=54	=54
2.C 2.CC/	4.b- 4.g/	.	4E\	(8g\L	przed
.	.	.	.	8dd\J)	.
.	.	.	4C\	(4.cc\	twym
.	8g 8e/	.	.	.	.
.	4b- 4g/	.	4E\	.	.
.	.	.	.	8b-\)	.
=55	=55	=55	=55	=55	=55
2.F 2.FF/	4.a 4.f/	.	4F\	8a\L	Tro-
.	.	.	.	8dd\J	.
.	.	.	4FF/	2cc\	-nem
.	8c/	.	.	.	.
.	4a 4f/	.	4F\	.	.
=56	=56	=56	=56	=56	=56
2.C 2.CC/	4.b- 4.g/	.	4E\	(8g\L	nis-
.	.	.	.	8dd\J)	.
.	.	.	4C\	(4.cc\	-ko
.	8g 8e/	.	.	.	.
.	4b- 4g/	.	4E\	.	.
.	.	.	.	8b-\)	.
=57	=57	=57	=57	=57	=57
2.F 2.FF/	4.a 4.f/	.	4F\	8a\L	pa-
.	.	.	.	8dd\J	.
.	.	.	4FF/	2cc\	-dam
.	8f/	.	.	.	.
.	4cc 4a/	.	4F\	.	.
=58	=58	=58	=58	=58	=58
2.F 2.FF/	8ddL 8b-\	.	2.FF/	8dd\	Hołd
.	8cc 8a\	.	.	8cc\	po-
.	8dd 8b-\	.	.	8dd\	-win-
.	8cc 8a\	.	.	8cc\	-ny
.	8dd 8b-\	.	.	8dd\	to-
.	8eeJ 8b- 8g\	.	.	8ee\	-bie
=59	=59	=59	=59	=59	=59
4F 4FF/	4ff 4a 4f\	.	4FF/	(4ff\	skła-
4D 4DD/	4bn 4f\	.	4D\	4bn\)	.
4C 4CC/	4cc 4g 4e\	.	4C\	4cc\	-dam
=60	=60	=60	=60	=60	=60
2.F 2.FF/	8ccL 8a/	.	4.FF/	8cc\	O
.	8b-XJ 8g/	.	.	8b-X\	Ma-
*	*tremolo	*	*	*	*
.	8aL 8f/	.	.	4a/	-ry-
.	8c/	.	8AA/L	.	.
.	8a 8f/	.	8C/	4a/	-o
.	8c/J	.	8FF/J	.	.
=61	=61	=61	=61	=61	=61
2.C 2.CC/	8b-L 8g/	.	4.CC/	8b-/	bła-
.	8aJ 8f/	.	.	8a/	-gaj
.	8gL 8e/	.	.	4g/	Sy-
.	8c/	.	8GG/L	.	.
.	8g 8e/	.	8BB-/	4g/	-na
.	8c/J	.	8CC/J	.	.
=62	=62	=62	=62	=62	=62
2.F 2.FF/	8ccL 8a/	.	4.FF/	8cc\	Grze-
.	8b-J 8g/	.	.	8b-\	-sznych
.	8aL 8f/	.	.	4a/	na-
.	8c/	.	8AA/L	.	.
.	8a 8f/	.	8C/	4cc\	-dzie-
.	8c/J	.	8FF/J	.	.
=63	=63	=63	=63	=63	=63
!!LO:LB:g=original
8EL 8EE/	8b-L 8g 8c/	.	8EE/L	8b-/	-jo
8FJ 8FF/	8aJ 8f/	.	8FF/J	8a/	ie-
8r	4g 4e 4B-/	.	8r	4g/	-dy-
*8ba	*	*	*	*	*
8CC/L	.	.	8C/L	.	.
8FF/	4f 4c 4A/	.	8FF/	4f/	-na
8FFF/J	.	.	8F/J	.	.
*X8ba	*	*	*	*	*
=64	=64	=64	=64	=64	=64
2.F 2.FF/	8ccL 8a/	.	8c\L	2.r	.
.	8b-J 8g/	.	8B-\J	.	.
.	8aL 8f/	.	4A\	.	.
.	8c/	.	.	.	.
.	8a 8f/	.	4A\	.	.
.	8c/J	.	.	.	.
=65	=65	=65	=65	=65	=65
2.C 2.CC/	8b-L 8g 8e/	.	8B-\L	2.r	.
.	8aJ 8f/	.	8A\J	.	.
.	8gL 8e/	.	4G\	.	.
.	8c/	.	.	.	.
.	8g 8e/	.	4G\	.	.
.	8c/J	.	.	.	.
=66	=66	=66	=66	=66	=66
2.F 2.FF/	8ccL 8a/	.	4.FF/	8cc\	Grze-
.	8b-J 8g/	.	.	8b-\	-sznych
.	8aL 8f/	.	.	4a/	na-
.	8c/	.	8AA/L	.	.
.	8a 8f/	.	8C/	4cc/	-dzie-
.	8c/J	.	8FF/J	.	.
=67	=67	=67	=67	=67	=67
8EL 8EE/	8b-L 8g 8c/	.	8EE/L	8b-/	-jo
8FJ 8FF/	8aJ 8f/	.	8FF/J	8a/	ie-
8r	4g 4e 4B-/	.	8r	4g/	-dy-
8CL 8DD/	.	.	8C/L	.	.
8F 8FF/	8f 8A/	.	8FF/	8f/	-na
8FF/J	8cc 8a\	.	8F/J	8cc\	na-
=68	=68	=68	=68	=68	=68
[2.F 2.FF/	8ddL 8b-\	.	2.FF/	8dd\L	dzie-
.	8cc 8a\	.	.	8cc\J	.
.	8dd 8b-\	.	.	8dd\L	-io
.	8cc 8a\	.	.	8cc\J	.
.	8dd 8b-\	.	.	8dd\L	ie-
.	8eeJ 8b- 8g\	.	.	8ee\J	.
=69	=69	=69	=69	=69	=69
8FL] 8FF/	8ffL 8cc 8a\	.	8FF/L	8ff\L	-dy-
8EJ 8EE/	8ggJ 8cc\	.	8EE/J	8gg\J	.
4F 4FF/	4aa 4cc\	.	4FF/	4aa\	-na
4AA 4AAA/	4ff 4cc\	.	4BB-/	8r	.
.	.	.	.	8ff\	na-
=70	=70	=70	=70	=70	=70
4BB- 4BBB-/	4ff 4dd\	.	4BB-/	8ff\L	-dzie-
.	.	.	.	16dd\L	.
.	.	.	.	16b-\JJ	.
4C 4CC/	4a 4f/	.	4C/	8a\L	-jo
.	.	.	.	8cc\J	.
4C 4CC/	4b- 4g 4e/	.	4CC/	8g\L	ie-
.	.	.	.	8cc\J	.
=71	=71	=71	=71	=71	=71
.	.	.	.	8qb-/	.
2.F 2.FF/	8aL 8f/	.	4.FF/	4a/	-dy-
.	8c/	.	.	.	.
.	8a 8f/	.	.	8a/	-na
.	8c/J	.	8AA/L	8r	.
!	!LO:N:vis=4	!	!	!	!
.	8a 8f/	.	8C/	8r	.
!	!LO:N:vis=4	!	!	!	!
.	8cc 8a/	.	8FF/J	8cc\	na-
=72	=72	=72	=72	=72	=72
2.F 2.FF/	8ddL 8b-\	.	2.F\	8dd\L	-dzie-
.	8ccJ 8a\	.	.	8cc\J	.
.	8ddL 8b-\	.	.	8dd\L	-io
.	8ccJ 8a\	.	.	8cc\J	.
.	8ddL 8b-\	.	.	8dd\L	ie-
.	8eeJ 8cc\	.	.	8ee\J	.
=73	=73	=73	=73	=73	=73
!!LO:LB:g=original
8FL 8FF/	8ffL 8cc 8a\	.	8F\L	8ff\L	-dy-
8EJ 8EE/	8ggJ 8cc\	.	8E\J	8gg\J	.
4F 4FF/	4aa 4ff 4cc\	.	4F\	4aa\	-na
4AA 4AAA/	4ff 4cc\	.	4AA/	8r	.
.	.	.	.	8ff\	na-
=74	=74	=74	=74	=74	=74
4BB- 4BBB-/	4ff 4dd\	.	4BB-/	16gg\LL	-dzie-
.	.	.	.	16ff\	.
.	.	.	.	16dd\	.
.	.	.	.	16b-\JJ	.
4C 4CC/	4a 4f/	.	4C/	8a\L	-io
.	.	.	.	16dd\L	.
.	.	.	.	16cc\JJ	.
4C 4CC/	4b- 4g 4e/	.	4CC/	8g\L	ie-
.	.	.	.	16dd\L	.
.	.	.	.	16cc\JJ	.
=75	=75	=75	=75	=75	=75
2.F 2.FF/	8aL 8f/	.	2.FF/	2.cc\	-dy-
.	8c/	.	.	.	.
.	8a 8f/	.	.	.	.
.	8c/J	.	.	.	.
.	8b-L 8g 8e/	.	.	.	.
.	8c/J	.	.	.	.
=76	=76	=76	=76	=76	=76
*^	*	*	*	*	*
!	!	!LO:S:s=1:note:problem=note-level slur	!	!	!	!
2c/	2.A 2.F\	8aL (8f 8c/	.	8F\L	2f/	-na
.	.	8a/	.	8A\	.	.
.	.	8cc/	.	8c\	.	.
.	.	8ff/	.	8f\	.	.
4d 4B-/	.	8dd/	.	8d\	4r	.
.	.	8b-/J)	.	8B-\J	.	.
=77	=77	=77	=77	=77	=77	=77
.	.	16qqcc/LL	.	16qqc/LL	.	.
.	.	16qqb-/JJ	.	16qqB-/JJ	.	.
2.c/	4A 4F\	4a/	.	(4A\	2.r	.
.	4G 4E\	4b-/	.	4B-\	.	.
.	4A 4F\	4a/	.	4A\)	.	.
=78	=78	=78	=78	=78	=78	=78
2.c/	2.G 2.E\	8g/L	.	8G\L	2.r	.
.	.	8dd/	.	8d\	.	.
.	.	8cc/	.	8c\	.	.
.	.	8g/	.	8G\	.	.
.	.	8cc/	.	8c\	.	.
.	.	8b-/J	.	8B-\J	.	.
=79	=79	=79	=79	=79	=79	=79
.	.	16qqa/LL	.	16qqA/LL	.	.
.	.	16qqg/JJ	.	16qqG/JJ	.	.
2c/	4A 4F\	4f/	.	4F\	2.r	.
.	4B- 4E\	4g/	.	4G\	.	.
8c/L	8AL 8F\	4f/	.	4F\	.	.
8d/J	8D\J	.	.	.	.	.
*v	*v	*	*	*	*	*
=80	=80	=80	=80	=80	=80
2B- 2BB-\	4.dd 4.b- 4.f/	.	4d\	2.r	.
.	.	.	(4B-\	.	.
.	8ffL 8dd/	.	.	.	.
4B- 4BB-\	8dd 8b-/	.	4G\	.	.
.	8b-J 8g 8d/	.	.	.	.
=81	=81	=81	=81	=81	=81
2.C 2.CC/	2a 2f 2c/	.	2.c\)	2.r	.
.	4g 4e 4c 4B-/	.	.	.	.
.	.	.	(32qqCC/LLL	.	.
.	.	.	32qqDD/	.	.
.	.	.	32qqEE/JJJ	.	.
=82	=82	=82	=82	=82	=82
!	!LO:S:s=1:note:problem=note-level slur	!	!	!	!
2.F 2.FF\	(>2.g 2.e 2.c 2.G/	.	2.FF/)	2.r	.
=83	=83	=83	=83	=83	=83
2F 2FF\	2f) 2c 2A/	.	2FF/	2.r	.
4r	4r	.	4r	.	.
==	==	==	==	==	==
*-	*-	*-	*-	*-	*-
!!!system-decoration: s1,s2{(s3,s4)}
!!!RDF**kern: > = above
!!!RDF**kern: < = below
!!!ENC: Tomasz Grochalski
!!!END: 2020-03-06
!!!ENC: Marta Lawrence
!!!END: 2020-04-28
